X: 100157
M: C|
L: 1/8
K: G
|:\
vG2G2 GABc | dcBA GABG | A2A2 A2(ed) | cBAG FAFD |\
|:\
vA2A2 A2(Bc) | dBAG FAFD | d2d2 d2(ef) | gedc BdBG |\
e2c2 c2ge | (d2B2) B2g2 | ecec BAGF | G2(.B2.G2) z2 :|


